X:899
T:Reel 899
M:4/4
K:Gmaj
L:1/8
dc|Bdgd Bdgd|Bdgd BAAd|Bdgd gdgd|BdAc BGGd|Bdgd Bdgd|Bdgd BAAd|Bdef gabc'|d'bc'a bggz|d'bab gfge|dBgB BAAz|d'bac' bdeg| (3efg dc' Bggb|d'bgb c'bag| (3efg dg egaz|d'bc'a bgaf|gedc BGG|
